imgs/download-icon.svg

<svg width="24" height="24" fill="none" xmlns="http://www.w3.org/2000/svg"><mask id="a" style="mask-type:alpha" maskUnits="userSpaceOnUse" x="0" y="0" width="24" height="24"><path fill="#D9D9D9" d="M0 0h24v24H0z"/></mask><g mask="url(#a)"><path d="M6 20c-.55 0-1.02-.196-1.412-.587A1.927 1.927 0 0 1 4 18v-3h2v3h12v-3h2v3c0 .55-.196 1.021-.587 1.413A1.928 1.928 0 0 1 18 20H6Zm6-4-5-5 1.4-1.45 2.6 2.6V4h2v8.15l2.6-2.6L17 11l-5 5Z" fill="#1F4459"/></g></svg>

<svg width="24" height="24" viewBox="0 0 24 24" fill="none" xmlns="http://www.w3.org/2000/svg">
<mask id="mask0_27_67" style="mask-type:alpha" maskUnits="userSpaceOnUse" x="0" y="0" width="24" height="24">
<rect width="24" height="24" fill="#D9D9D9"/>
</mask>
<g mask="url(#mask0_27_67)">
<path d="M6 20C5.45 20 4.97933 19.8043 4.588 19.413C4.196 19.021 4 18.55 4 18V15H6V18H18V15H20V18C20 18.55 19.8043 19.021 19.413 19.413C19.021 19.8043 18.55 20 18 20H6ZM12 16L7 11L8.4 9.55L11 12.15V4H13V12.15L15.6 9.55L17 11L12 16Z" fill="#1F4459"/>
</g>
</svg>
